X:13
T:Gigue de Touristes
C:Joseph Allard
M:6/8
L:1/8
Z:abc by Bruce Osborne - bosborne@kos.net
K:C
e|gec cBc|dBG G2 F|EFG ABc|edc d2 g|!
gec cBc|dBG G2 F|EFG ABc|dcB c2:|!
|:e|gec c2 a|age c2 e|gec cBc|dBG G2 g|!
gec c2 a|age c2 e|gec BAB|c3 -c2:|!
